icons/black/petrocanada.svg

<?xml version="1.0" encoding="UTF-8"?><svg id="a" xmlns="http://www.w3.org/2000/svg" viewBox="0 0 48 48"><defs><style>.b{fill:none;stroke:#000;stroke-linecap:round;stroke-linejoin:round;}</style></defs><rect class="b" x="5.5" y="5.5" width="37" height="37" rx="4" ry="4"/><path class="b" d="M5.5854,29.7848l5.9336-.9748-1.3139-5.3823,4.3653.6358.7626-2.0342,4.79,4.9587-1.611-9.748,2.7968,1.3993,2.5433-5.171,2.9245,5.3817,2.4578-1.61-1.4839,9.7053,4.6629-4.9588.8481,2.0765,4.1529-.5935-1.2716,5.3823,6.1459.89"/><path class="b" d="M15.8962,38.9521h3.1264M15.8962,32.71h3.1264M15.8962,35.8364h2.0338M15.8962,32.71v6.2418"/><path class="b" d="M9.4689,38.9632v-6.2532h2.0311c1.1658.0006,2.1103.946,2.1098,2.1118-.0006,1.165-.9448,2.1092-2.1098,2.1098h-2.0311"/><path class="b" d="M21.522,32.7125h4.1421M23.6328,38.9632v-6.2532"/><path class="b" d="M27.9692,38.9632v-6.2532h2.0313c1.1658-.0006,2.1113.9439,2.1119,2.1097.0006,1.1658-.9439,2.1113-2.1097,2.1119h-2.0313M30.1527,36.9248l1.9586,2.0381"/><path class="b" d="M34.39,36.93c-.0219,1.1437.8874,2.0887,2.0312,2.1107,1.1437.022,2.0887-.8874,2.1107-2.0312.0004-.0206.0005-.0412.0003-.0618v-2.1288c.0039-1.1608-.9339-2.105-2.0947-2.1089-.0054,0-.0108,0-.0162,0-1.1236.001-2.0336.9127-2.0326,2.0362,0,.0242.0005.0485.0014.0727v2.1111Z"/></svg>

<svg xmlns="http://www.w3.org/2000/svg" viewBox="0 0 48 48"><defs><style>.a{fill:none;stroke:#000;stroke-linecap:round;stroke-linejoin:round;}</style></defs><path class="a" d="M5.5854,29.7848,11.519,28.81l-1.3139-5.3823,4.3653.6358.7626-2.0342,4.79,4.9587L18.512,17.24l2.7968,1.3993,2.5433-5.171L26.7766,18.85l2.4578-1.61-1.4839,9.7053,4.6629-4.9588.8481,2.0765,4.1529-.5935-1.2716,5.3823,6.1459.89"/><path class="a" d="M15.8962,38.9521h3.1264M15.8962,32.71h3.1264m-3.1264,3.1264H17.93M15.8962,32.71v6.2418"/><path class="a" d="M9.4689,38.9632V32.71H11.5a2.1108,2.1108,0,0,1,0,4.2216H9.4689"/><path class="a" d="M21.522,32.7125h4.1421m-2.0313,6.2507V32.71"/><path class="a" d="M27.9692,38.9632V32.71h2.0313a2.1108,2.1108,0,0,1,.0022,4.2216H27.9714m2.1813-.0068,1.9586,2.0381"/><path class="a" d="M34.39,36.93a2.0713,2.0713,0,1,0,4.1421.0177q0-.0089,0-.0177V34.8189A2.1018,2.1018,0,0,0,36.4212,32.71,2.0344,2.0344,0,0,0,34.39,34.8189Z"/><path class="a" d="M7.2986,5.5H40.7014A1.7987,1.7987,0,0,1,42.5,7.2986V40.7014A1.7987,1.7987,0,0,1,40.7014,42.5H7.2986A1.7987,1.7987,0,0,1,5.5,40.7014V7.2986A1.7987,1.7987,0,0,1,7.2986,5.5Z"/></svg>
